images/delivery-issue.svg

<svg width="200" height="110" viewBox="0 0 200 110" fill="none" xmlns="http://www.w3.org/2000/svg">
<path d="M39.2999 15.1L12.8999 15C9.0999 15 5.9999 18.1 5.9999 21.9L5.8999 88C5.8999 91.8 8.9999 94.9 12.7999 94.9L39.0999 95C42.8999 95 45.9999 91.9 45.9999 88.1L46.1999 22C46.1999 18.2 43.0999 15.1 39.2999 15.1ZM42.7999 88.1C42.7999 90.1 41.0999 91.8 39.0999 91.8L12.6999 91.7C10.6999 91.7 8.9999 90 8.9999 88L9.0999 21.9C9.0999 19.9 10.7999 18.2 12.7999 18.2L39.1999 18.3C41.1999 18.3 42.8999 20 42.8999 22L42.7999 88.1Z" fill="#C6C6C6"/>
<path d="M187.3 15.1L160.9 15C157.1 15 154 18.1 154 21.9L153.9 88C153.9 91.8 157 94.9 160.8 94.9L187.2 95C191 95 194.1 91.9 194.1 88.1L194.2 22C194.2 18.2 191.1 15.1 187.3 15.1ZM190.8 88.1C190.8 90.1 189.1 91.8 187.1 91.8L160.7 91.7C158.7 91.7 157 90 157 88L157.1 21.9C157.1 19.9 158.8 18.2 160.8 18.2L187.2 18.3C189.2 18.3 190.9 20 190.9 22L190.8 88.1Z" fill="#C6C6C6"/>
<path d="M126 58C127.105 58 128 57.1046 128 56C128 54.8954 127.105 54 126 54C124.895 54 124 54.8954 124 56C124 57.1046 124.895 58 126 58Z" fill="#848484"/>
<path d="M136 58C137.105 58 138 57.1046 138 56C138 54.8954 137.105 54 136 54C134.895 54 134 54.8954 134 56C134 57.1046 134.895 58 136 58Z" fill="#848484"/>
<path d="M146 58C147.105 58 148 57.1046 148 56C148 54.8954 147.105 54 146 54C144.895 54 144 54.8954 144 56C144 57.1046 144.895 58 146 58Z" fill="#848484"/>
<path d="M54 58C55.1046 58 56 57.1046 56 56C56 54.8954 55.1046 54 54 54C52.8954 54 52 54.8954 52 56C52 57.1046 52.8954 58 54 58Z" fill="#848484"/>
<path d="M64 58C65.1046 58 66 57.1046 66 56C66 54.8954 65.1046 54 64 54C62.8954 54 62 54.8954 62 56C62 57.1046 62.8954 58 64 58Z" fill="#848484"/>
<path d="M74 58C75.1046 58 76 57.1046 76 56C76 54.8954 75.1046 54 74 54C72.8954 54 72 54.8954 72 56C72 57.1046 72.8954 58 74 58Z" fill="#848484"/>
<path d="M118 56C118 65.9411 109.941 74 100 74C90.0589 74 82 65.9411 82 56C82 46.0589 90.0589 38 100 38C109.941 38 118 46.0589 118 56Z" fill="#FFC207"/>
<path d="M102.083 47H97.9167L98.75 58.25H101.25L102.083 47Z" fill="white"/>
<path d="M102.079 61.5C102.353 61.87 102.5 62.305 102.5 62.75C102.5 63.3467 102.237 63.919 101.768 64.341C101.299 64.7629 100.663 65 100 65C99.5055 65 99.0222 64.868 98.6111 64.6208C98.2 64.3736 97.8795 64.0222 97.6903 63.611C97.5011 63.1999 97.4516 62.7475 97.548 62.311C97.6445 61.8746 97.8826 61.4737 98.2322 61.159C98.5819 60.8443 99.0273 60.63 99.5123 60.5432C99.9972 60.4564 100.5 60.501 100.957 60.6713C101.414 60.8416 101.804 61.13 102.079 61.5Z" fill="white"/>
</svg>

<svg xmlns="http://www.w3.org/2000/svg" width="200" height="110" fill="none"><path fill="#C6C6C6" d="M39.3 15.1 12.9 15C9.1 15 6 18.1 6 21.9L5.9 88c0 3.8 3.1 6.9 6.9 6.9l26.3.1c3.8 0 6.9-3.1 6.9-6.9l.2-66.1c0-3.8-3.1-6.9-6.9-6.9m3.5 73c0 2-1.7 3.7-3.7 3.7l-26.4-.1C10.7 91.7 9 90 9 88l.1-66.1c0-2 1.7-3.7 3.7-3.7l26.4.1c2 0 3.7 1.7 3.7 3.7zm144.5-73-26.4-.1c-3.8 0-6.9 3.1-6.9 6.9l-.1 66.1c0 3.8 3.1 6.9 6.9 6.9l26.4.1c3.8 0 6.9-3.1 6.9-6.9l.1-66.1c0-3.8-3.1-6.9-6.9-6.9m3.5 73c0 2-1.7 3.7-3.7 3.7l-26.4-.1c-2 0-3.7-1.7-3.7-3.7l.1-66.1c0-2 1.7-3.7 3.7-3.7l26.4.1c2 0 3.7 1.7 3.7 3.7z"/><path fill="#848484" d="M126 58a2 2 0 1 0 0-4 2 2 0 0 0 0 4m10 0a2 2 0 1 0 0-4 2 2 0 0 0 0 4m10 0a2 2 0 1 0 0-4 2 2 0 0 0 0 4m-92 0a2 2 0 1 0 0-4 2 2 0 0 0 0 4m10 0a2 2 0 1 0 0-4 2 2 0 0 0 0 4m10 0a2 2 0 1 0 0-4 2 2 0 0 0 0 4"/><path fill="#FFC207" d="M118 56c0 9.941-8.059 18-18 18s-18-8.059-18-18 8.059-18 18-18 18 8.059 18 18"/><path fill="#fff" d="M102.083 47h-4.166l.833 11.25h2.5zm-.004 14.5c.274.37.421.805.421 1.25 0 .597-.263 1.169-.732 1.591A2.65 2.65 0 0 1 100 65c-.495 0-.978-.132-1.389-.38a2.3 2.3 0 0 1-.92-1.009 2.04 2.04 0 0 1-.143-1.3c.096-.436.335-.837.684-1.152s.795-.529 1.28-.616a2.76 2.76 0 0 1 1.445.128c.457.17.847.459 1.122.829"/></svg>
